X: 06049
T: MARY LEA'S WALTZ
C: Bob McQuillen 4 Sept 81
B: Bob's Note Book 6 #49
%R: waltz
Z: 2021 John Chambers <jc:trillian.mit.edu>
M: 3/4
L: 1/4
K: D
[| D2F | E2D | C2B, | A,3 | D2F | E2D | A3- | A3 |\
| BG>F | EFG | AF>E | DEF | GE>D| CDE | F3  | E2A, |
| D2F  | E2D | C2B, | A,3 | D2F | E2D | A3- | A3 |\
| BGF  | EFG | AFA  | dBG | F3  | E3  | D3- | D3 |]
[| F3  | EDE | FD>B,| A,3 | F3  | EDE | F3- | FGA |\
| Bcd  | dcB | A3   | d3  | f3  | edB | e2d | cde |
| f3   | ede | fd>B | Ade | fgf | edc | d2e | fga |\
| b3   | a2g | f2e  | d2e | f3  | e3  | d3- | d3 |]
%%begintext align
%% Mare Lea is a
%% fine fiddler down Boston way, and I promised
%% her a tune.  I hope you like your waltz, Mary!
%%endtext

%%sep 1 1 500

%%sep 1 1 500

